X: 128
T: Chark's Hornpipe
M:3/2
L:1/8
S: 8: MCJLSH3 http://www.cpartington.plus.com/links/Walsh.abc
Z: Pete Stewart 2004
B: Walsh "Third Book of the most Celebrated jiggs, Lancashire hornpipes, ..."
K:D
d2A2F2D2A2d2 | cde2Bcd2c2A2 | d2f2efg2fga2 | A2d2cdecd4 ||
fefg fedc B2d2 | c2e2d2B2^A2F2 | BcdB cdec defd |
F2B2^ABc^AB2AG | FEFD GFGE AGAF | BABG cBcA dcdB | efedc2A2dcde | f2d2cdecd4 ||

%%sep 1 1 500
%%sep 1 1 500
